dist/svg/u1F9B3.svg

<?xml version="1.0" encoding="UTF-8"?><svg id="Layer_1" xmlns="http://www.w3.org/2000/svg" viewBox="0 0 40 40"><g><path d="M14.63559,13.82152L3.58681,25.36902c-.0287-.05832-.05791-.10723-.08681-.16329v10.82874H36.5v-12.69043c-8.85042,.2344-21.86441-9.52252-21.86441-9.52252Z" style="fill:#ffc84d;"/><path d="M17.64102,4.07137c-5.92979,.59485-11.06831,3.76928-14.14102,8.26622v12.86814l.17561,.07048L14.63559,13.82152s13.01399,9.75692,21.86441,9.52252V13.50565c0-.27137-.07448-.53981-.22194-.76762-3.7297-5.76216-10.77171-9.45552-18.63705-8.66666Z" style="fill:#e7e7e7;"/></g><rect width="40" height="40" style="fill:none;"/></svg>

<svg id="Layer_1" data-name="Layer 1" xmlns="http://www.w3.org/2000/svg" viewBox="0 0 40 40"><defs><style>.cls-1{fill:#ffc84d;}.cls-2{fill:#e7e7e7;}.cls-3{fill:none;}</style></defs><path class="cls-1" d="M14.636,13.822,3.587,25.369c-.029-.058-.058-.107-.087-.163V36.034h33V23.344C27.65,23.578,14.636,13.822,14.636,13.822Z"/><path class="cls-2" d="M17.641,4.071A19.485,19.485,0,0,0,3.5,12.338V25.206l.176.07,10.96-11.454S27.65,23.578,36.5,23.344V13.506a1.409,1.409,0,0,0-.222-.768A19.749,19.749,0,0,0,17.641,4.071Z"/><rect class="cls-3" width="40" height="40"/></svg>
